dist/svg/static/parking-out-right-large.svg

<svg xmlns="http://www.w3.org/2000/svg" width="48" height="48" viewBox="0 0 48 48"><g fill="none" stroke="currentColor" stroke-miterlimit="10"><path d="M45 10.5h-8.5v31c0 2.2-1.8 4-4 4h-16c-2.2 0-4-1.8-4-4v-31H4M25 1.5h7.5V9"/><path d="M24.5 37V15.5c0-8.1 8-14 8-14"/></g></svg>

<?xml version="1.0" encoding="UTF-8" standalone="no"?>
<svg width="48px" height="48px" viewBox="0 0 48 48" version="1.1" xmlns="http://www.w3.org/2000/svg" xmlns:xlink="http://www.w3.org/1999/xlink">
    <!-- Generator: sketchtool 46.2 (44496) - http://www.bohemiancoding.com/sketch -->
    <title>parking-out-right-large</title>
    <desc>Created with sketchtool.</desc>
    <defs></defs>
    <g id="icons-published" stroke="none" stroke-width="1" fill="none" fill-rule="evenodd">
        <g id="briefing" transform="translate(-2304.000000, -1178.000000)"></g>
        <g id="parking-out-right-large" stroke="#000000">
            <path d="M45,10.5 L36.5,10.5 L36.5,41.5 C36.5,43.7 34.7,45.5 32.5,45.5 L16.5,45.5 C14.3,45.5 12.5,43.7 12.5,41.5 L12.5,10.5 L4,10.5 M25,1.5 L32.5,1.5 L32.5,9" id="Shape"></path>
            <path d="M24.5,37 L24.5,15.5 C24.5,7.4 32.5,1.5 32.5,1.5" id="Shape"></path>
        </g>
    </g>
</svg>
